X:2209
T:German Polka
O:england
M:2/4
L:1/16
S:Armitt MS
N:Grace notes shown as semi-quaver
K:C major
A2c2 c2c2|{d}cBcd e2c2|g2d2 d2d2|dedc BABG|G2c2 c2c2|{d}cBcd e2c2|g2d2 d
2d2|d^cde c4:||g2f2 f2f2|{g}fefga4|g2e2 e2e2|{f}edefg4|f2d2 d2d2|{e}d^de
f2B2|cBce agfe|dcdec4:||


